src/images/icons/button.svg

<svg fill="none" height="125" viewBox="0 0 100 125" width="100" xmlns="http://www.w3.org/2000/svg"><g fill="#fff"><path d="m83.5 60.5999c0-3.2-2.6-5.6999-5.7-5.6999-2.1 0-3.9 1.0999-4.9 2.6999v-.1999c0-3.2-2.6-5.8001-5.8-5.8001-2 0-3.9 1.1-4.9 2.7v-.0999c0-3.2-2.6-5.8-5.8-5.8-2 0-3.9 1.0999-4.9 2.6999v-6.3c1.6-.7 3-1.6999 4.3-2.8999 2.7-2.7 4.2-6.3 4.2-10 0-3.8-1.5-7.4001-4.2-10-2.7-2.7001-6.3-4.2-10-4.2s-7.4 1.4999-10 4.2c-2.7 2.7-4.2 6.2999-4.2 10 0 3.7999 1.5 7.4 4.2 10 1.3 1.3 2.7 2.1999 4.3 2.8999v24.7001c0 .3-.2.5999-.5.6999s-.6.1001-.9-.1999l-5.8-5.8001c-2-2-5.1-2.2999-7.4-.6999-1.4.9-2.3 2.4-2.5 4s.2 3.3 1.3 4.5l14.5 17.5c4.1 5 10.2 7.8 16.6 7.8h9.1c5.1 0 9.8-2 13.4-5.6s5.6-8.3 5.6-13.4zm-45.2-21.1999c-2-2-3.1-4.7001-3.1-7.6001s1.1-5.4999 3.1-7.5999 4.7-3.1 7.6-3.1 5.5 1.1 7.6 3.1c2 2 3.1 4.6999 3.1 7.5999s-1.1 5.5001-3.1 7.6001c-.6.6-1.2.9999-1.8 1.3999v-9c0-1.5-.6-2.9999-1.7-4.0999s-2.5-1.7-4.1-1.7c-3.2 0-5.7 2.5999-5.7 5.7999v9c-.7-.4-1.3-.8999-1.9-1.3999z"/><path d="m45.9 12.8c1 0 1.8-.8 1.8-1.8v-6.7c0-1-.8-1.8-1.8-1.8s-1.8.8-1.8 1.8v6.7c0 1 .8 1.8 1.8 1.8z"/><path d="m29.9 18.4c.3.3.8.5 1.2.5.5 0 .9-.2 1.2-.5.7-.7.7-1.8 0-2.5l-4.8-4.8c-.7-.7-1.8-.7-2.5 0s-.7 1.8 0 2.5z"/><path d="m26.8 31.8c0-1-.8-1.8-1.8-1.8h-6.8c-1 0-1.8.8-1.8 1.8s.8 1.8 1.8 1.8h6.8c1 0 1.8-.8 1.8-1.8z"/><path d="m64.9 31.8c0 1 .8 1.8 1.8 1.8h6.8c1 0 1.8-.8 1.8-1.8s-.8-1.8-1.8-1.8h-6.8c-1 .1-1.8.9-1.8 1.8z"/><path d="m60.6 18.9c.5 0 .9-.2 1.2-.5l4.8-4.8c.7-.7.7-1.8 0-2.5s-1.8-.7-2.5 0l-4.8 4.8c-.7.7-.7 1.8 0 2.5.4.3.8.5 1.3.5z"/></g></svg>

<svg width="100" height="125" viewBox="0 0 100 125" fill="none" xmlns="http://www.w3.org/2000/svg">
<path d="M83.5 60.5999C83.5 57.3999 80.9 54.9 77.8 54.9C75.7 54.9 73.9 55.9999 72.9 57.5999V57.4C72.9 54.2 70.3 51.5999 67.1 51.5999C65.1 51.5999 63.2 52.6999 62.2 54.2999V54.2C62.2 51 59.6 48.4 56.4 48.4C54.4 48.4 52.5 49.4999 51.5 51.0999V44.7999C53.1 44.0999 54.5 43.1 55.8 41.9C58.5 39.2 60 35.6 60 31.9C60 28.1 58.5 24.4999 55.8 21.9C53.1 19.1999 49.5 17.7 45.8 17.7C42.1 17.7 38.4 19.1999 35.8 21.9C33.1 24.6 31.6 28.1999 31.6 31.9C31.6 35.6999 33.1 39.3 35.8 41.9C37.1 43.2 38.5 44.0999 40.1 44.7999V69.5C40.1 69.8 39.9 70.0999 39.6 70.1999C39.3 70.2999 39 70.3 38.7 70L32.9 64.1999C30.9 62.1999 27.8 61.9 25.5 63.5C24.1 64.4 23.2 65.9 23 67.5C22.8 69.1 23.2 70.8 24.3 72L38.8 89.5C42.9 94.5 49 97.3 55.4 97.3H64.5C69.6 97.3 74.3 95.3 77.9 91.7C81.5 88.1 83.5 83.4 83.5 78.3V60.5999ZM38.3 39.4C36.3 37.4 35.2 34.6999 35.2 31.7999C35.2 28.8999 36.3 26.3 38.3 24.2C40.3 22.1 43 21.1 45.9 21.1C48.8 21.1 51.4 22.2 53.5 24.2C55.5 26.2 56.6 28.8999 56.6 31.7999C56.6 34.6999 55.5 37.3 53.5 39.4C52.9 40 52.3 40.3999 51.7 40.7999V31.7999C51.7 30.2999 51.1 28.8 50 27.7C48.9 26.6 47.5 26 45.9 26C42.7 26 40.2 28.5999 40.2 31.7999V40.7999C39.5 40.3999 38.9 39.9 38.3 39.4Z" fill="white"/>
<path d="M45.9 12.8C46.9 12.8 47.7 12 47.7 11V4.3C47.7 3.3 46.9 2.5 45.9 2.5C44.9 2.5 44.1 3.3 44.1 4.3V11C44.1 12 44.9 12.8 45.9 12.8Z" fill="white"/>
<path d="M29.9 18.4C30.2 18.7 30.7 18.9 31.1 18.9C31.6 18.9 32 18.7 32.3 18.4C33 17.7 33 16.6 32.3 15.9L27.5 11.1C26.8 10.4 25.7 10.4 25 11.1C24.3 11.8 24.3 12.9 25 13.6L29.9 18.4Z" fill="white"/>
<path d="M26.8 31.8C26.8 30.8 26 30 25 30H18.2C17.2 30 16.4 30.8 16.4 31.8C16.4 32.8 17.2 33.6 18.2 33.6H25C26 33.6 26.8 32.8 26.8 31.8Z" fill="white"/>
<path d="M64.9 31.8C64.9 32.8 65.7 33.6 66.7 33.6H73.5C74.5 33.6 75.3 32.8 75.3 31.8C75.3 30.8 74.5 30 73.5 30H66.7C65.7 30.1 64.9 30.9 64.9 31.8Z" fill="white"/>
<path d="M60.6 18.9C61.1 18.9 61.5 18.7 61.8 18.4L66.6 13.6C67.3 12.9 67.3 11.8 66.6 11.1C65.9 10.4 64.8 10.4 64.1 11.1L59.3 15.9C58.6 16.6 58.6 17.7 59.3 18.4C59.7 18.7 60.1 18.9 60.6 18.9Z" fill="white"/>
</svg>
